!!!OTL: In the Month of October
!!!ONM: 122.
**kern
*clefG2
*k[b-]
*F:
*M3/4
*MM80
{4.f
8f
=1
4f
4f
4f
=2
4f
4a
4cc
=3
4ff
4ee
4dd
=4
4.cc
8r}
{8a
8a
=5
4a
4a
4a
=6
4a
4a
4a
=7
4a
4a
4b-
=8
4.g
8r}
{4f
=9
4f
4f
4f
=10
4f
4a
4cc
=11
4ff
4ee
4dd
=12
4.cc
8r}
{8cc
8cc
=13
4dd
4cc
4a
=14
4g
4f
8g
8g
=15
4a
4g
4f
=16
4.d
8r}
{8cc
8cc
=17||
4.cc
8cc
8cc
8cc
=18
4dd
4cc
4a
=19
4g
4f
4e
=20
2f}
==
*-
!!!CNT: Folksongs of Maritime Canada
!!!MRD: 1928///-1932///
!!!OCL: Helen Creighton
!!!YOR: Songs and Ballads from Nova Scotia
!!!PPR: J.M. Dent & Sons, Limited
!!!PPP: Toronto, Canada
!!!PDT: 1932///
!!!reprint: Dover Publications, 1992: ISBN 0-486-21703-5
!!!ENC1: Craig Stuart Sapp (music and bibliographic data)                       
!!!ENC2: Marcus Pearce (phrase markings and key designations)                   
!!!ENC3: Darrell Conklin (phrase markings and key designations)   
!!!END: 2002/04/10/
!!!EEV: 2004/06/05
!!!MPN: Mr. Allan Hartlan
!!!PPG: 265
!!!EFL: 124/152
!!!ARE: Canada; Nova Scotia
!!!verses: 4
!!!VTS: 978314718
